X: 9
T: Jenny Picking Cockles
Z: Erik-Fiddler
S: https://thesession.org/tunes/202#setting48712
R: reel
M: 4/4
L: 1/8
K: Gmix
g2||fagf dccA|Bcde [f3A3] a|g/a/g fg dc ~(3c/c/c/c|Acfc AGG^F|
Gg ~(3g/^f/g/g dccA|Bcde [f3A3] a|g/a/g fg dc ~(3c/B/c/c |Acfc AGG^F||
[G,G]gga bgag|^fd d/d/d fdcA|dgga bgag|^fdcA BGBc|
dgga bgag|^fd d/d/d fdga|bga^f g/a/b ag|^fdcA G2 g2||

